Catalina-light/actions/16/dependency.svg

<svg xmlns="http://www.w3.org/2000/svg" viewBox="0 0 16 16">
  <defs id="defs3051">
    <style type="text/css" id="current-color-scheme">
      .ColorScheme-Text {
        color:#363636;
      }
      </style>
  </defs>
 <path style="fill:currentColor;fill-opacity:1;stroke:none" 
     d="M 7.5 2 L 4 9 L 4.8945312 9.4472656 L 7 5.2363281 L 7 8 L 8 8 L 8 5.2363281 L 10.105469 9.4472656 L 11 9 L 7.5 2 z M 7 9 L 7 11 L 8 11 L 8 9 L 7 9 z M 7 12 L 7 14 L 8 14 L 8 12 L 7 12 z "
     class="ColorScheme-Text"
     />
</svg>

<svg viewBox="0 0 16 16" xmlns="http://www.w3.org/2000/svg">
<defs>
<style id="current-color-scheme" type="text/css">.ColorScheme-Text {
        color:#363636;
      }</style>
</defs>
<path class="ColorScheme-Text" d="m7.5 2-3.5 7 0.89453 0.44727 2.1055-4.2109v2.7637h1v-2.7637l2.1055 4.2109 0.89453-0.44727-3.5-7zm-0.5 7v2h1v-2h-1zm0 3v2h1v-2h-1z" fill="#363636"/>
</svg>
